X:1
T:Title
%%score { ( 1 2 3 ) | ( 4 5 6 ) }
L:1/8
Q:1/4=106
M:4/4
K:Eb
V:1 bass nm="Grand Piano"
V:2 bass 
V:3 bass 
V:4 bass 
V:5 bass 
V:6 bass 
V:1
 z2 z[K:treble] F [EG]3 A |[M:3/4] [GB]>=A [GB]>c [GB]2 |[M:1/4] [B,GB]>[Be] | %3
[M:4/4] [Ac]4 [GB]2 [GB]>[Be] | [Ac]4 [GB]2 z2 | z2 z[K:treble] F [EG]3 A | %6
[M:3/4] [GB]>=A [GB]>c [GB]2 |[M:1/4] [B,GB]>[Gc] |[M:4/4] [_Gd]2 [Gd]2 [Gd]2 [CG=A]2 | %9
 [B,GB]6 z2 | [FAB]3- [FAB]/[Ac]/ [FAB]3- [FAB]/[Ac]/ | [EGB]2 [EGe]>[Ac] [EGB]2 z2 | %12
 [FAB]3- [FAB]/[Ac]/ [FAB]3- [FAB]/[Ac]/ | [EGB]2 [_Ge]>[Gc] [=GB]2 z2 | [Ge]2 [Ge]>[Ge] d2 G2 | %15
 c2 c>c B2 E2 | [CB][CA][K:bass][E,C][A,CF] [G,B,E]2 [F,B,D][G,E] | [A,EF]2 [A,B,]2 [G,B,G]2 z2 | %18
 [Ge]3- [Ge]/[Ge]/ d2 G2 | c3- c/[Dc]/ [DB]2 [G,E]2 | %20
 [CEB][CEA][K:bass][A,C][F,CF] [G,B,E]2 [F,B,D][K:treble][G,B,E] | G4[K:bass] z4 |] %22
V:2
 E4[K:treble] z4 |[M:3/4] x6 |[M:1/4] x2 |[M:4/4] x8 | x8 | E4[K:treble] z4 |[M:3/4] x6 | %7
[M:1/4] x2 |[M:4/4] x8 | x8 | x8 | x8 | x8 | x8 | x8 | x8 | x2[K:bass] x6 | x8 | x8 | x8 | %20
 x2[K:bass] x5[K:treble] x | z2 D2[K:bass] z4 |] %22
V:3
 z2 B,,2[K:treble] z4 |[M:3/4] x6 |[M:1/4] x2 |[M:4/4] x8 | x8 | z2 B,,2[K:treble] z4 |[M:3/4] x6 | %7
[M:1/4] x2 |[M:4/4] x8 | x8 | x8 | x8 | x8 | x8 | x8 | x8 | x2[K:bass] x6 | x8 | x8 | x8 | %20
 x2[K:bass] x5[K:treble] x | [B,E]2 z F[K:bass] [E,G,E]4 |] %22
V:4
 [E,G,]2 z D E,2 z F |[M:3/4] z z/ _G/ z z/ A/ E,2 |[M:1/4] E,>[G,B,] | %3
[M:4/4] [A,C]4 [E,E]2 [E,B,]>[G,B,] | [A,C]4 [E,E]2 z2 | [E,G,]2 z D E,2 z F | %6
[M:3/4] z z/ _G/ z z/ A/ E,2 |[M:1/4] E,>[E,G,] |[M:4/4] [D,=A,]2 [D,A,]2 [D,A,]2 D,2 | G,6 z2 | %10
 D,2 z z/ F/ D,2 z z/ F/ | E,2 z z/ D/ E,2 B,,2 | D,2 z z/ F/ D,2 z z/ F/ | %13
 E,2 [E,=A,]>[E,A,] [E,B,]2 z2 | [C,C]2 [C,C]>[C,C][K:treble] [G,=B,G]2 [G,B,F]2 | %15
 [A,CE]2 [A,E]>[A,E][K:bass] [E,G,E]2 [E,G,_D]2 | [A,,A,][A,,A,]B,,A,, B,,2 B,,B,, | %17
 B,,2 D,2 E,2 z2 | [C,C]3- [C,C]/[C,C]/[K:treble] [G,CG]2 [G,=B,F]2 | %19
 [A,CE]3- [A,CE]/[A,,A,]/ [B,,A,]2 C,2 | A,,A,,A,,=A,, B,,2 B,,B,, | z2 A,2 z4 |] %22
V:5
 z4 z2 B,,2 |[M:3/4] E,2 B,,2 z2 |[M:1/4] x2 |[M:4/4] x8 | x8 | z4 z2 B,,2 |[M:3/4] E,2 B,,2 z2 | %7
[M:1/4] x2 |[M:4/4] x8 | x8 | z2 B,,2 z2 B,,2 | z2 B,,2 z4 | z2 B,,2 z2 B,,2 | x8 | %14
 x4[K:treble] x4 | x4[K:bass] x4 | x8 | x8 | x4[K:treble] x4 | x8 | x8 | B,,4 z4 |] %22
V:6
 x8 |[M:3/4] x6 |[M:1/4] x2 |[M:4/4] x8 | x8 | x8 |[M:3/4] x6 |[M:1/4] x2 |[M:4/4] x8 | x8 | x8 | %11
 x8 | x8 | x8 | x4[K:treble] x4 | x4[K:bass] x4 | x8 | x8 | x4[K:treble] x4 | x8 | x8 | %21
 z2 z B,, E,,4 |] %22

